src/assets/icons/icon_favorite_true.svg

<svg width="24" height="24" viewBox="0 0 24 24" fill="none" xmlns="http://www.w3.org/2000/svg">
<path d="M15.9004 3.59961C18.9655 3.59982 21.409 6.03176 21.5 9.11719V9.2998C21.5 10.9416 20.8634 12.3778 19.7949 13.3574L19.5996 13.5361V13.6094C19.5809 13.625 19.5613 13.6411 19.541 13.6582C19.3855 13.7893 19.174 13.9722 18.9219 14.1914C18.4171 14.6304 17.7402 15.2252 17.0029 15.875C15.5297 17.1734 13.8131 18.6908 12.7158 19.6387C12.3403 19.9516 11.7682 19.9531 11.3906 19.6436C10.2919 18.6947 8.54404 17.1721 7.05762 15.873C6.31407 15.2232 5.63571 14.6295 5.1377 14.1924C4.88881 13.9739 4.68541 13.7945 4.54102 13.667C4.52639 13.6541 4.51302 13.6414 4.5 13.6299V13.5518L4.32422 13.376C3.23041 12.2822 2.59961 10.8319 2.59961 9.2998V9.11816C2.68973 6.14432 5.22248 3.7002 8.2002 3.7002C8.67843 3.70024 9.28062 3.86393 9.86523 4.17871C10.4344 4.48517 10.9419 4.91184 11.2773 5.40039C11.6071 6.10363 12.6087 6.09817 12.9287 5.38477C13.2098 4.8627 13.7112 4.41086 14.292 4.08691C14.8763 3.76106 15.4767 3.59961 15.9004 3.59961Z" fill="#74A1FB" stroke="#74A1FB" stroke-width="1.2"/>
</svg>

<svg xmlns="http://www.w3.org/2000/svg" fill="none" viewBox="0 0 24 24"><path fill="#74a1fb" stroke="#74a1fb" stroke-width="1.2" d="M15.9 3.6c3.065 0 5.509 2.432 5.6 5.517V9.3c0 1.642-.637 3.078-1.705 4.057l-.195.18v.072l-.059.05c-.155.13-.367.313-.62.532-.504.44-1.18 1.034-1.918 1.684-1.473 1.298-3.19 2.816-4.287 3.764a1.06 1.06 0 0 1-1.325.005 1133 1133 0 0 1-6.85-5.977L4.5 13.63v-.078l-.176-.176C3.23 12.282 2.6 10.832 2.6 9.3v-.182C2.69 6.144 5.222 3.7 8.2 3.7c.478 0 1.08.164 1.665.479.57.306 1.077.733 1.412 1.221a.907.907 0 0 0 1.652-.015c.28-.522.782-.974 1.363-1.298.584-.326 1.185-.487 1.608-.487Z"/></svg>
